X:1150
T:Larry the Beer Drinker
M:6/8
L:1/8
R:jig
D:Brendan Larrissey: A Flick of the Wrist
Z:Devin McCabe
K:G
D2G GFG|EFD Ddc|~B3 GBd|cAG FAA|
!D2G GFG|EFD Ddc|~B3 cAF|1AEF ~G3:|2AEF GBc||
!dgg dff|dgg cBc|dgg dff|GAB ABc|
!def ~g3|agf gfe|fed cAF|AEF GBc|
!dgg dff|dgg cBc|dgg dff|GAB ABc|
!def gab|agf ~g3|fed cAF|ABA ~G3||
